X:53
T:When Summer Ends
C:Phil Cunningham
M:3/4
L:1/8
K:D
AG | F(AA4) | (A4A)G| F(DD4) | G4 AG|
F(AA4) | c3 d ef | (d6 |d4) cd | B4 A2 |
d4 F2 | A4 D2 | A4 D2 | D4 E2 |(F4F)G |
1F(EE4|E4) :|2 F(EE4| E4) g2||
|f(dd4) | g4 f2 | d4 c2 | A4 g2 |f(dd4) | e4 a2|
(a6 |a4) g2 | f(dd4) | g4 B2 | d4 c2 | A4 AG |
F(AA4) | A4 G2 | F(DD4) |1 G4 g2 :|2 G4 ||
